src/next/cmd/sc_doubleclicktextedit.svg

<svg height="16" viewBox="0 0 4.2333333 4.2333335" width="16" xmlns="http://www.w3.org/2000/svg" xmlns:xlink="http://www.w3.org/1999/xlink"><filter id="a" color-interpolation-filters="sRGB" height="1.306617" width="1.43589" x="-.217945" y="-.153309"><feGaussianBlur stdDeviation="3.1542391"/></filter><linearGradient id="b" gradientUnits="userSpaceOnUse" x1="32.81356" x2="28.745762" y1="44.474575" y2="19.254236"><stop offset="0" stop-color="#070707"/><stop offset="1" stop-color="#474747"/></linearGradient><filter id="c" color-interpolation-filters="sRGB" height="1.033229" width="1.086411" x="-.043206" y="-.016615"><feGaussianBlur stdDeviation=".71988281"/></filter><filter id="d" color-interpolation-filters="sRGB" height="1.049844" width="1.129617" x="-.064808" y="-.024922"><feGaussianBlur stdDeviation="1.0798242"/></filter><filter id="e" color-interpolation-filters="sRGB" height="1.083073" width="1.216028" x="-.108014" y="-.041536"><feGaussianBlur stdDeviation="1.799707"/></filter><g transform="matrix(.125 0 0 .125 .007087 -32.89166)"><g transform="matrix(.26458333 0 0 .26458333 0 263.13332)"><path d="m24 1.171875a14.829994 14.829994 0 0 0 -14.828125 14.828125v8a14.829994 14.829994 0 0 0 8 13.15625v45.695312a14.829994 14.829994 0 0 0 -8 13.148438v8a14.829994 14.829994 0 0 0 14.828125 14.82812h8a14.829994 14.829994 0 0 0 3.976562-.55859 14.829994 14.829994 0 0 0 4.023438.55859h8a14.829994 14.829994 0 0 0 14.828125-14.82812v-8a14.829994 14.829994 0 0 0 -8-13.15625v-45.695312a14.829994 14.829994 0 0 0 8-13.148438v-8a14.829994 14.829994 0 0 0 -14.828125-14.828125h-8a14.829994 14.829994 0 0 0 -3.976562.5585938 14.829994 14.829994 0 0 0 -4.023438-.5585938z" filter="url(#e)" opacity=".26"/><path d="m24 8.0058594a7.995798 7.995798 0 0 0 -7.994141 7.9941406v8a7.995798 7.995798 0 0 0 7.994141 7.994141h.0059v56.011718h-.0059a7.995798 7.995798 0 0 0 -7.994141 7.994141v8a7.995798 7.995798 0 0 0 7.994141 7.99414h8a7.995798 7.995798 0 0 0 4.001953-1.08203 7.995798 7.995798 0 0 0 3.998047 1.08203h8a7.995798 7.995798 0 0 0 7.994141-7.99414v-8a7.995798 7.995798 0 0 0 -7.994141-7.994141h-.0059v-56.011718h.0059a7.995798 7.995798 0 0 0 7.994141-7.994141v-8a7.995798 7.995798 0 0 0 -7.994141-7.9941406h-8a7.995798 7.995798 0 0 0 -4.001953 1.0820312 7.995798 7.995798 0 0 0 -3.998047-1.0820312z" filter="url(#d)" opacity=".55"/><path d="m24 8.0058594a7.995798 7.995798 0 0 0 -7.994141 7.9941406v8a7.995798 7.995798 0 0 0 7.994141 7.994141h.0059v56.011718h-.0059a7.995798 7.995798 0 0 0 -7.994141 7.994141v8a7.995798 7.995798 0 0 0 7.994141 7.99414h8a7.995798 7.995798 0 0 0 4.001953-1.08203 7.995798 7.995798 0 0 0 3.998047 1.08203h8a7.995798 7.995798 0 0 0 7.994141-7.99414v-8a7.995798 7.995798 0 0 0 -7.994141-7.994141h-.0059v-56.011718h.0059a7.995798 7.995798 0 0 0 7.994141-7.994141v-8a7.995798 7.995798 0 0 0 -7.994141-7.9941406h-8a7.995798 7.995798 0 0 0 -4.001953 1.0820312 7.995798 7.995798 0 0 0 -3.998047-1.0820312z" filter="url(#c)" opacity=".7"/><path d="m24 8.0058594a7.995798 7.995798 0 0 0 -7.994141 7.9941406v8a7.995798 7.995798 0 0 0 7.994141 7.994141h.0059v56.011718h-.0059a7.995798 7.995798 0 0 0 -7.994141 7.994141v8a7.995798 7.995798 0 0 0 7.994141 7.99414h8a7.995798 7.995798 0 0 0 4.001953-1.08203 7.995798 7.995798 0 0 0 3.998047 1.08203h8a7.995798 7.995798 0 0 0 7.994141-7.99414v-8a7.995798 7.995798 0 0 0 -7.994141-7.994141h-.0059v-56.011718h.0059a7.995798 7.995798 0 0 0 7.994141-7.994141v-8a7.995798 7.995798 0 0 0 -7.994141-7.9941406h-8a7.995798 7.995798 0 0 0 -4.001953 1.0820312 7.995798 7.995798 0 0 0 -3.998047-1.0820312z" fill="#fff"/></g><g transform="matrix(.396875 0 0 .396875 9.572331 271.35605)"><path d="m22.708984 3.9453125c-3.643939.037094-6.935512 3.3597782-6.935546 7.0039065v43.93164c.000478 4.147308 4.37543 7.703362 8.435546 6.857422l9.992188-2.080078 2.375 1.714844c1.876701 1.356544 5.885119 3.607037 8.047558 2.778906.01858-.0069 1.255573-.463996 2.644531-1.242187.617506-.345969 1.597838-.928014 2.550781-1.839844.431928-.413294 1.210343-1.264146 1.753907-2.351563.691831-1.384039-.303632-5.000467-.844433-7.163671-.0036-.01429-.05031-.245884-.05859-.283204l6.132812-4.144531c3.40028-2.297728 3.941244-7.821553 1.052735-10.736328l-.002-.002-30.099567-30.3710469c-1.314483-1.3259965-3.177893-2.0906385-5.044922-2.0722656z" filter="url(#a)" opacity=".76"/><path d="m17.03125 7.3398438c-2.671376.0271922-5.082006 2.4632515-5.082031 5.1347652v43.931641c.000351 3.040395 3.205165 5.647504 6.18164 5.027344l10.800782-2.248047 4.670087 5.587096c1.376447.994944 3.261915 1.239033 4.847657.63086h.002c.01282-.0048 1.149662-.428397 2.396484-1.126953.577508-.32356 1.382234-.803021 2.171875-1.558594.368036-.352159.950562-.988787 1.375-1.837891.513582-1.027443-.77469-5.741835-1.175947-7.346862-.03825-.153003-.209942-.997624-.332031-1.582031l7.173828-4.847656c2.493301-1.684843 2.890644-5.734647.771484-7.871094l-30.101609-30.373047c-.963649-.9720894-2.328545-1.5330004-3.697266-1.5195312h-.002z" fill="#fff" transform="translate(5.694915 -3.525424)"/><path d="m23.737884 11.281217v40.419921l11.863281-2.470703c.263538-.05442.537815.0044.755859.16211l6.527477 6.654892c.285679-.118453.599894-.234307 1.154297-.544922.384975-.215689.749087-.464247.9375-.644531.06051-.0579.06738-.07382.08789-.101562-.320785-1.338154-3.156382-8.467393-3.156382-8.467393-.07594-.378615.08265-.765836.402343-.982422l9.074219-6.130859z" fill="url(#b)"/></g><path d="m8.466666 269.48331h2.116667v19.050022h-2.116667z"/><path d="m6.35 267.36664h2.116667v2.116667h-2.116667z"/><path d="m8.40997 267.36664h4.29003v2.116667h-4.29003z"/><path d="m8.457218 288.53333h4.242783v2.116667h-4.242783z"/><path d="m6.35 288.53333h2.116666v2.116667h-2.116666z"/></g></svg>

<?xml version="1.0" encoding="UTF-8" standalone="no"?>
<!-- Created with Inkscape (http://www.inkscape.org/) -->

<svg
   xmlns:dc="http://purl.org/dc/elements/1.1/"
   xmlns:cc="http://creativecommons.org/ns#"
   xmlns:rdf="http://www.w3.org/1999/02/22-rdf-syntax-ns#"
   xmlns:svg="http://www.w3.org/2000/svg"
   xmlns="http://www.w3.org/2000/svg"
   xmlns:sodipodi="http://sodipodi.sourceforge.net/DTD/sodipodi-0.dtd"
   xmlns:inkscape="http://www.inkscape.org/namespaces/inkscape"
   width="16"
   height="16"
   viewBox="0 0 4.2333333 4.2333335"
   version="1.1"
   id="svg8"
   inkscape:version="0.92.3 (2405546, 2018-03-11)"
   sodipodi:docname="sc_doubleclicktextedit.svg"
   inkscape:export-filename="/home/rizmut/Dokumen/Rizmut/Github/libreoffice-style-karasa-jaga/build/next/cmd/sc_doubleclicktextedit.png"
   inkscape:export-xdpi="96"
   inkscape:export-ydpi="96">
  <defs
     id="defs2">
    <filter
       style="color-interpolation-filters:sRGB"
       id="e"
       height="1.306617"
       width="1.43589"
       x="-0.21794499"
       y="-0.153309">
      <feGaussianBlur
         stdDeviation="3.1542391"
         id="feGaussianBlur22" />
    </filter>
    <linearGradient
       id="f"
       gradientUnits="userSpaceOnUse"
       x1="32.81356"
       x2="28.745762"
       y1="44.474575"
       y2="19.254236">
      <stop
         offset="0"
         stop-color="#070707"
         id="stop25" />
      <stop
         offset="1"
         stop-color="#474747"
         id="stop27" />
    </linearGradient>
    <filter
       inkscape:collect="always"
       style="color-interpolation-filters:sRGB"
       id="filter1566"
       x="-0.043205626"
       width="1.0864114"
       y="-0.016614553"
       height="1.0332291">
      <feGaussianBlur
         inkscape:collect="always"
         stdDeviation="0.71988281"
         id="feGaussianBlur1568" />
    </filter>
    <filter
       inkscape:collect="always"
       style="color-interpolation-filters:sRGB"
       id="filter1572"
       x="-0.064808436"
       width="1.1296169"
       y="-0.024921829"
       height="1.0498437">
      <feGaussianBlur
         inkscape:collect="always"
         stdDeviation="1.0798242"
         id="feGaussianBlur1574" />
    </filter>
    <filter
       inkscape:collect="always"
       style="color-interpolation-filters:sRGB"
       id="filter1582"
       x="-0.10801406"
       width="1.2160281"
       y="-0.04153638"
       height="1.0830728">
      <feGaussianBlur
         inkscape:collect="always"
         stdDeviation="1.799707"
         id="feGaussianBlur1584" />
    </filter>
  </defs>
  <sodipodi:namedview
     id="base"
     pagecolor="#ffffff"
     bordercolor="#666666"
     borderopacity="1.0"
     inkscape:pageopacity="0.0"
     inkscape:pageshadow="2"
     inkscape:zoom="30.25"
     inkscape:cx="10.448544"
     inkscape:cy="7.7726111"
     inkscape:document-units="mm"
     inkscape:current-layer="g2168"
     showgrid="true"
     units="px"
     inkscape:window-width="1366"
     inkscape:window-height="714"
     inkscape:window-x="0"
     inkscape:window-y="28"
     inkscape:window-maximized="1"
     inkscape:snap-global="true">
    <inkscape:grid
       type="xygrid"
       id="grid1478"
       spacingx="0.13229167"
       spacingy="0.13229167"
       empspacing="2" />
  </sodipodi:namedview>
  <metadata
     id="metadata5">
    <rdf:RDF>
      <cc:Work
         rdf:about="">
        <dc:format>image/svg+xml</dc:format>
        <dc:type
           rdf:resource="http://purl.org/dc/dcmitype/StillImage" />
        <dc:title></dc:title>
      </cc:Work>
    </rdf:RDF>
  </metadata>
  <g
     inkscape:label="Layer 1"
     inkscape:groupmode="layer"
     id="layer1"
     transform="translate(0,-292.76665)">
    <g
       id="g2168"
       transform="matrix(0.125,0,0,0.125,0.00708707,259.87499)">
      <path
         sodipodi:type="inkscape:offset"
         inkscape:radius="14.828511"
         inkscape:original="M 24 16 L 24 24 L 32 24 L 32 16 L 24 16 z M 32 24 L 32 96 L 40 96 L 40 24 L 32 24 z M 40 24 L 48 24 L 48 16 L 40 16 L 40 24 z M 40 96 L 40 104 L 48 104 L 48 96 L 40 96 z M 32 96 L 24 96 L 24 104 L 32 104 L 32 96 z "
         style="opacity:0.26000001;fill:#000000;fill-opacity:1;stroke:none;stroke-width:2.06529188;stroke-linecap:round;stroke-linejoin:round;stroke-miterlimit:4;stroke-dasharray:6.19587598, 6.19587598;stroke-dashoffset:0;stroke-opacity:1;filter:url(#filter1582)"
         id="path1576"
         d="M 24,1.171875 A 14.829994,14.829994 0 0 0 9.171875,16 v 8 a 14.829994,14.829994 0 0 0 8,13.15625 V 82.851562 A 14.829994,14.829994 0 0 0 9.171875,96 v 8 A 14.829994,14.829994 0 0 0 24,118.82812 h 8 A 14.829994,14.829994 0 0 0 35.976562,118.26953 14.829994,14.829994 0 0 0 40,118.82812 h 8 A 14.829994,14.829994 0 0 0 62.828125,104 v -8 a 14.829994,14.829994 0 0 0 -8,-13.15625 V 37.148438 A 14.829994,14.829994 0 0 0 62.828125,24 V 16 A 14.829994,14.829994 0 0 0 48,1.171875 H 40 A 14.829994,14.829994 0 0 0 36.023438,1.7304688 14.829994,14.829994 0 0 0 32,1.171875 Z"
         transform="matrix(0.26458333,0,0,0.26458333,0,263.13332)" />
      <path
         transform="matrix(0.26458333,0,0,0.26458333,0,263.13332)"
         d="M 24,8.0058594 A 7.995798,7.995798 0 0 0 16.005859,16 v 8 A 7.995798,7.995798 0 0 0 24,31.994141 h 0.0059 V 88.005859 H 24 A 7.995798,7.995798 0 0 0 16.005859,96 v 8 A 7.995798,7.995798 0 0 0 24,111.99414 h 8 A 7.995798,7.995798 0 0 0 36.001953,110.91211 7.995798,7.995798 0 0 0 40,111.99414 h 8 A 7.995798,7.995798 0 0 0 55.994141,104 V 96 A 7.995798,7.995798 0 0 0 48,88.005859 h -0.0059 V 31.994141 H 48 A 7.995798,7.995798 0 0 0 55.994141,24 V 16 A 7.995798,7.995798 0 0 0 48,8.0058594 H 40 A 7.995798,7.995798 0 0 0 35.998047,9.0878906 7.995798,7.995798 0 0 0 32,8.0058594 Z"
         id="path1570"
         style="opacity:0.55;fill:#000000;fill-opacity:1;stroke:none;stroke-width:2.06529188;stroke-linecap:round;stroke-linejoin:round;stroke-miterlimit:4;stroke-dasharray:6.19587598, 6.19587598;stroke-dashoffset:0;stroke-opacity:1;filter:url(#filter1572)"
         inkscape:original="M 24 16 L 24 24 L 32 24 L 32 16 L 24 16 z M 32 24 L 32 96 L 40 96 L 40 24 L 32 24 z M 40 24 L 48 24 L 48 16 L 40 16 L 40 24 z M 40 96 L 40 104 L 48 104 L 48 96 L 40 96 z M 32 96 L 24 96 L 24 104 L 32 104 L 32 96 z "
         inkscape:radius="7.9949985"
         sodipodi:type="inkscape:offset" />
      <path
         sodipodi:type="inkscape:offset"
         inkscape:radius="7.9949985"
         inkscape:original="M 24 16 L 24 24 L 32 24 L 32 16 L 24 16 z M 32 24 L 32 96 L 40 96 L 40 24 L 32 24 z M 40 24 L 48 24 L 48 16 L 40 16 L 40 24 z M 40 96 L 40 104 L 48 104 L 48 96 L 40 96 z M 32 96 L 24 96 L 24 104 L 32 104 L 32 96 z "
         style="opacity:0.7;fill:#000000;fill-opacity:1;stroke:none;stroke-width:2.06529188;stroke-linecap:round;stroke-linejoin:round;stroke-miterlimit:4;stroke-dasharray:6.19587598, 6.19587598;stroke-dashoffset:0;stroke-opacity:1;filter:url(#filter1566)"
         id="path1560"
         d="M 24,8.0058594 A 7.995798,7.995798 0 0 0 16.005859,16 v 8 A 7.995798,7.995798 0 0 0 24,31.994141 h 0.0059 V 88.005859 H 24 A 7.995798,7.995798 0 0 0 16.005859,96 v 8 A 7.995798,7.995798 0 0 0 24,111.99414 h 8 A 7.995798,7.995798 0 0 0 36.001953,110.91211 7.995798,7.995798 0 0 0 40,111.99414 h 8 A 7.995798,7.995798 0 0 0 55.994141,104 V 96 A 7.995798,7.995798 0 0 0 48,88.005859 h -0.0059 V 31.994141 H 48 A 7.995798,7.995798 0 0 0 55.994141,24 V 16 A 7.995798,7.995798 0 0 0 48,8.0058594 H 40 A 7.995798,7.995798 0 0 0 35.998047,9.0878906 7.995798,7.995798 0 0 0 32,8.0058594 Z"
         transform="matrix(0.26458333,0,0,0.26458333,0,263.13332)" />
      <path
         transform="matrix(0.26458333,0,0,0.26458333,0,263.13332)"
         d="M 24,8.0058594 A 7.995798,7.995798 0 0 0 16.005859,16 v 8 A 7.995798,7.995798 0 0 0 24,31.994141 h 0.0059 V 88.005859 H 24 A 7.995798,7.995798 0 0 0 16.005859,96 v 8 A 7.995798,7.995798 0 0 0 24,111.99414 h 8 A 7.995798,7.995798 0 0 0 36.001953,110.91211 7.995798,7.995798 0 0 0 40,111.99414 h 8 A 7.995798,7.995798 0 0 0 55.994141,104 V 96 A 7.995798,7.995798 0 0 0 48,88.005859 h -0.0059 V 31.994141 H 48 A 7.995798,7.995798 0 0 0 55.994141,24 V 16 A 7.995798,7.995798 0 0 0 48,8.0058594 H 40 A 7.995798,7.995798 0 0 0 35.998047,9.0878906 7.995798,7.995798 0 0 0 32,8.0058594 Z"
         id="rect1542"
         style="opacity:1;fill:#ffffff;fill-opacity:1;stroke:none;stroke-width:2.06529188;stroke-linecap:round;stroke-linejoin:round;stroke-miterlimit:4;stroke-dasharray:6.19587598, 6.19587598;stroke-dashoffset:0;stroke-opacity:1"
         inkscape:original="M 24 16 L 24 24 L 32 24 L 32 16 L 24 16 z M 32 24 L 32 96 L 40 96 L 40 24 L 32 24 z M 40 24 L 48 24 L 48 16 L 40 16 L 40 24 z M 40 96 L 40 104 L 48 104 L 48 96 L 40 96 z M 32 96 L 24 96 L 24 104 L 32 104 L 32 96 z "
         inkscape:radius="7.9949985"
         sodipodi:type="inkscape:offset" />
      <g
         transform="matrix(0.396875,0,0,0.396875,9.5723312,271.35605)"
         id="g46">
        <path
           d="m 22.708984,3.9453125 c -3.643939,0.037094 -6.935512,3.3597782 -6.935546,7.0039065 v 43.93164 c 4.78e-4,4.147308 4.37543,7.703362 8.435546,6.857422 l 9.992188,-2.080078 2.375,1.714844 c 1.876701,1.356544 5.885119,3.607037 8.047558,2.778906 0.01858,-0.0069 1.255573,-0.463996 2.644531,-1.242187 0.617506,-0.345969 1.597838,-0.928014 2.550781,-1.839844 0.431928,-0.413294 1.210343,-1.264146 1.753907,-2.351563 0.691831,-1.384039 -0.303632,-5.000467 -0.844433,-7.163671 -0.0036,-0.01429 -0.05031,-0.245884 -0.05859,-0.283204 l 6.132812,-4.144531 c 3.40028,-2.297728 3.941244,-7.821553 1.052735,-10.736328 l -0.002,-0.002 L 27.753906,6.0175781 C 26.439423,4.6915816 24.576013,3.9269396 22.708984,3.9453125 Z"
           id="path40"
           inkscape:connector-curvature="0"
           style="opacity:0.76000001;filter:url(#e)" />
        <path
           d="M 17.03125,7.3398438 C 14.359874,7.367036 11.949244,9.8030953 11.949219,12.474609 V 56.40625 c 3.51e-4,3.040395 3.205165,5.647504 6.18164,5.027344 l 10.800782,-2.248047 4.670087,5.587096 c 1.376447,0.994944 3.261915,1.239033 4.847657,0.63086 h 0.002 c 0.01282,-0.0048 1.149662,-0.428397 2.396484,-1.126953 0.577508,-0.32356 1.382234,-0.803021 2.171875,-1.558594 0.368036,-0.352159 0.950562,-0.988787 1.375,-1.837891 0.513582,-1.027443 -0.77469,-5.741835 -1.175947,-7.346862 -0.03825,-0.153003 -0.209942,-0.997624 -0.332031,-1.582031 l 7.173828,-4.847656 c 2.493301,-1.684843 2.890644,-5.734647 0.771484,-7.871094 L 20.730469,8.859375 C 19.76682,7.8872856 18.401924,7.3263746 17.033203,7.3398438 h -0.002 z"
           transform="translate(5.694915,-3.525424)"
           id="path42"
           inkscape:connector-curvature="0"
           style="fill:#ffffff" />
        <path
           d="m 23.737884,11.281217 v 40.419921 l 11.863281,-2.470703 c 0.263538,-0.05442 0.537815,0.0044 0.755859,0.16211 l 6.527477,6.654892 c 0.285679,-0.118453 0.599894,-0.234307 1.154297,-0.544922 0.384975,-0.215689 0.749087,-0.464247 0.9375,-0.644531 0.06051,-0.0579 0.06738,-0.07382 0.08789,-0.101562 -0.320785,-1.338154 -3.156382,-8.467393 -3.156382,-8.467393 -0.07594,-0.378615 0.08265,-0.765836 0.402343,-0.982422 l 9.074219,-6.130859 z"
           id="path44"
           style="fill:url(#f)"
           inkscape:connector-curvature="0" />
      </g>
      <rect
         y="269.48331"
         x="8.4666662"
         height="19.050022"
         width="2.1166666"
         id="rect1532"
         style="opacity:1;fill:#000000;fill-opacity:1;stroke:none;stroke-width:0.54644179;stroke-linecap:round;stroke-linejoin:round;stroke-miterlimit:4;stroke-dasharray:1.63932552, 1.63932552;stroke-dashoffset:0;stroke-opacity:1" />
      <rect
         y="267.36664"
         x="6.3499999"
         height="2.1166666"
         width="2.1166666"
         id="rect1534"
         style="opacity:1;fill:#000000;fill-opacity:1;stroke:none;stroke-width:0.57599992;stroke-linecap:round;stroke-linejoin:round;stroke-miterlimit:4;stroke-dasharray:1.72799982, 1.72799982;stroke-dashoffset:0;stroke-opacity:1" />
      <rect
         y="267.36664"
         x="8.4099703"
         height="2.1166666"
         width="4.2900295"
         id="rect1536"
         style="opacity:1;fill:#000000;fill-opacity:1;stroke:none;stroke-width:0.8200236;stroke-linecap:round;stroke-linejoin:round;stroke-miterlimit:4;stroke-dasharray:2.46007086, 2.46007086;stroke-dashoffset:0;stroke-opacity:1" />
      <rect
         y="288.53333"
         x="8.4572182"
         height="2.1166666"
         width="4.2427826"
         id="rect1538"
         style="opacity:1;fill:#000000;fill-opacity:1;stroke:none;stroke-width:0.47082654;stroke-linecap:round;stroke-linejoin:round;stroke-miterlimit:4;stroke-dasharray:1.41247968, 1.41247968;stroke-dashoffset:0;stroke-opacity:1" />
      <rect
         style="opacity:1;fill:#000000;fill-opacity:1;stroke:none;stroke-width:0.33255368;stroke-linecap:round;stroke-linejoin:round;stroke-miterlimit:4;stroke-dasharray:0.99766108, 0.99766108;stroke-dashoffset:0;stroke-opacity:1"
         id="rect1540"
         width="2.1166663"
         height="2.1166666"
         x="6.3499999"
         y="288.53333" />
    </g>
  </g>
</svg>
